Sources/FrostedUI/Resources/Icons.xcassets/discordFilledSize32.imageset/discord-filled-size-32.svg

<svg
  width="32"
  height="32"
  viewBox="0 0 32 32"
  fill="none"
  xmlns="http://www.w3.org/2000/svg"
  data-fui-icon="true"
>
  <path
    d="M26.1814 6.69705C24.2542 5.81007 22.2197 5.1808 20.1297 4.82535C19.8437 5.33928 19.585 5.86805 19.3545 6.40945C17.1284 6.07223 14.8645 6.07223 12.6384 6.40945C12.4078 5.86812 12.149 5.33935 11.8632 4.82535C9.77194 5.1838 7.73605 5.81456 5.80689 6.70169C1.977 12.398 0.938769 17.9528 1.45788 23.4288C3.70076 25.0947 6.21118 26.3616 8.88002 27.1745C9.48097 26.362 10.0127 25.5001 10.4697 24.5977C9.60178 24.2719 8.76413 23.8699 7.96638 23.3964C8.17634 23.2433 8.38168 23.0856 8.58009 22.9325C10.9013 24.0299 13.4348 24.5988 16 24.5988C18.565 24.5988 21.0985 24.0299 23.4197 22.9325C23.6205 23.0972 23.8258 23.2549 24.0334 23.3964C23.2342 23.8707 22.395 24.2735 21.5256 24.6001C21.982 25.502 22.5137 26.3632 23.1152 27.1745C25.7864 26.3649 28.2986 25.0985 30.542 23.4312C31.151 17.0808 29.5014 11.577 26.1814 6.69705ZM11.1272 20.0612C9.68061 20.0612 8.4855 18.7415 8.4855 17.1179C8.4855 15.4944 9.63908 14.1631 11.1226 14.1631C12.6061 14.1631 13.792 15.4944 13.7666 17.1179C13.7412 18.7415 12.6015 20.0612 11.1272 20.0612ZM20.8726 20.0612C19.4237 20.0612 18.2333 18.7415 18.2333 17.1179C18.2333 15.4944 19.3868 14.1631 20.8726 14.1631C22.3585 14.1631 23.5352 15.4944 23.5097 17.1179C23.4844 18.7415 22.3469 20.0612 20.8726 20.0612Z"
    fill="currentColor"
  />
</svg>

<svg xmlns="http://www.w3.org/2000/svg" width="32" height="32" fill="none" data-fui-icon="true" viewBox="0 0 32 32"><path fill="currentColor" d="M26.181 6.697a24.2 24.2 0 0 0-6.051-1.872 17 17 0 0 0-.775 1.584 22.4 22.4 0 0 0-6.717 0q-.346-.812-.775-1.584c-2.091.359-4.127.99-6.056 1.877-3.83 5.696-4.868 11.25-4.35 16.727a24.3 24.3 0 0 0 7.423 3.746c.601-.813 1.133-1.675 1.59-2.577a16 16 0 0 1-2.504-1.202q.316-.231.614-.463a17.36 17.36 0 0 0 14.84 0c.2.164.406.322.613.463-.799.475-1.638.877-2.507 1.204a18 18 0 0 0 1.59 2.574 24.2 24.2 0 0 0 7.426-3.743c.609-6.35-1.04-11.854-4.36-16.734M11.127 20.061c-1.446 0-2.642-1.32-2.642-2.943 0-1.624 1.154-2.955 2.638-2.955s2.669 1.331 2.644 2.955c-.026 1.624-1.165 2.943-2.64 2.943m9.746 0c-1.45 0-2.64-1.32-2.64-2.943 0-1.624 1.154-2.955 2.64-2.955 1.485 0 2.662 1.331 2.637 2.955-.026 1.624-1.163 2.943-2.637 2.943"/></svg>
